X: 187
U:~=!turn!
M:C|
L:1/8
K:C lydian
(Bc/d/) (BG) ecdc | (Bc/d/) (BG) gB d2 | (Bc/d/) (BG) ecdB | cA=FA fA c2 |
(Bc/d/) (BG) ecdc | (Bc/d/) (BG) gB d2 | (Bc/d/) BG ecdB | cA=FA fAc2 |]


